apps/dapp/src/components/CoreLayout/nav-selector-icon.svg

<svg width="24" height="25" viewBox="0 0 24 25" fill="none" xmlns="http://www.w3.org/2000/svg">
<g filter="url(#filter0_i_3925_425)">
<path d="M23.7629 23.0392L16.1388 1.08283C16.0742 0.896446 15.9529 0.734806 15.7918 0.620426C15.6307 0.506046 15.4379 0.44462 15.2401 0.444706H9.23525C9.03723 0.444496 8.84408 0.505844 8.68264 0.620213C8.52121 0.734581 8.39952 0.896282 8.33452 1.08283L0.718697 23.0392C0.669177 23.182 0.654606 23.3346 0.67622 23.4842C0.697833 23.6338 0.755003 23.776 0.842943 23.8991C0.930883 24.0222 1.04705 24.1225 1.18176 24.1917C1.31647 24.2609 1.46582 24.2969 1.61735 24.2969L22.8642 24.2969C23.0158 24.2969 23.1651 24.2609 23.2998 24.1917C23.4345 24.1225 23.5507 24.0222 23.6387 23.8991C23.7266 23.776 23.7838 23.6338 23.8054 23.4842C23.827 23.3346 23.8124 23.182 23.7629 23.0392Z" fill="url(#paint0_linear_3925_425)"/>
<path fill-rule="evenodd" clip-rule="evenodd" d="M14.2484 4.07422L10.2334 4.07422V4.07628C10.0342 4.07389 9.83921 4.13401 9.67609 4.24814C9.51297 4.36228 9.38996 4.52467 9.32442 4.71234L3.94074 20.2338C3.8913 20.3767 3.87678 20.5294 3.89841 20.6791C3.92003 20.8287 3.97717 20.9711 4.06507 21.0943C4.15296 21.2175 4.26906 21.318 4.40375 21.3874C4.53843 21.4569 4.68778 21.4932 4.8394 21.4935H19.6321C19.7839 21.4937 19.9335 21.4576 20.0684 21.3883C20.2033 21.319 20.3197 21.2185 20.4076 21.0951C20.4956 20.9718 20.5527 20.8292 20.5741 20.6794C20.5956 20.5295 20.5807 20.3767 20.5308 20.2338L15.1471 4.71234C15.0825 4.52596 14.9611 4.36432 14.8001 4.24994C14.639 4.13556 14.4461 4.07413 14.2484 4.07422ZM13.3728 4.88411L11.1071 4.88411C10.9205 4.88469 10.7388 4.93923 10.5877 5.04003C10.4365 5.14083 10.3236 5.2828 10.2648 5.4459L5.28321 19.2677C5.23876 19.391 5.22672 19.5222 5.24807 19.6506C5.26943 19.779 5.32356 19.9008 5.40604 20.0062C5.48851 20.1115 5.59697 20.1973 5.72248 20.2565C5.84799 20.3157 5.98697 20.3467 6.12798 20.3467H18.3543C18.4951 20.3463 18.6338 20.3151 18.759 20.2558C18.8842 20.1964 18.9923 20.1106 19.0745 20.0053C19.1567 19.9 19.2107 19.7782 19.2319 19.65C19.2531 19.5218 19.241 19.3908 19.1967 19.2677L14.2176 5.4459C14.1583 5.28262 14.0449 5.14058 13.8933 5.0398C13.7418 4.93901 13.5597 4.88456 13.3728 4.88411Z" fill="#361D0C"/>
<path fill-rule="evenodd" clip-rule="evenodd" d="M12.1471 16.5018C11.1008 16.5018 10.2525 15.6536 10.2525 14.6072C10.2525 13.5609 11.1008 12.7126 12.1471 12.7126C13.1935 12.7126 14.0417 13.5609 14.0417 14.6072C14.0417 15.6536 13.1935 16.5018 12.1471 16.5018ZM8.75582 14.6072C8.75582 16.4802 10.2742 17.9985 12.1471 17.9985C14.0201 17.9985 15.5384 16.4802 15.5384 14.6072C15.5384 12.7343 14.0201 11.2159 12.1471 11.2159C10.2742 11.2159 8.75582 12.7343 8.75582 14.6072Z" fill="#382315"/>
<g filter="url(#filter1_d_3925_425)">
<path d="M14.1277 14.6053C14.1277 13.5115 13.241 12.6247 12.1471 12.6247C11.0533 12.6247 10.1665 13.5115 10.1665 14.6053C10.1665 15.6992 11.0533 16.5859 12.1471 16.5859C13.241 16.5859 14.1277 15.6992 14.1277 14.6053Z" fill="#FFDEC9"/>
</g>
</g>
<defs>
<filter id="filter0_i_3925_425" x="0.666504" y="0.445312" width="23.1484" height="23.8516" filterUnits="userSpaceOnUse" color-interpolation-filters="sRGB">
<feFlood flood-opacity="0" result="BackgroundImageFix"/>
<feBlend mode="normal" in="SourceGraphic" in2="BackgroundImageFix" result="shape"/>
<feColorMatrix in="SourceAlpha" type="matrix" values="0 0 0 0 0 0 0 0 0 0 0 0 0 0 0 0 0 0 127 0" result="hardAlpha"/>
<feOffset/>
<feGaussianBlur stdDeviation="7.48357"/>
<feComposite in2="hardAlpha" operator="arithmetic" k2="-1" k3="1"/>
<feColorMatrix type="matrix" values="0 0 0 0 0 0 0 0 0 0 0 0 0 0 0 0 0 0 0.25 0"/>
<feBlend mode="normal" in2="shape" result="effect1_innerShadow_3925_425"/>
</filter>
<filter id="filter1_d_3925_425" x="4.17965" y="6.63815" width="15.9351" height="15.9346" filterUnits="userSpaceOnUse" color-interpolation-filters="sRGB">
<feFlood flood-opacity="0" result="BackgroundImageFix"/>
<feColorMatrix in="SourceAlpha" type="matrix" values="0 0 0 0 0 0 0 0 0 0 0 0 0 0 0 0 0 0 127 0" result="hardAlpha"/>
<feOffset/>
<feGaussianBlur stdDeviation="2.99343"/>
<feComposite in2="hardAlpha" operator="out"/>
<feColorMatrix type="matrix" values="0 0 0 0 1 0 0 0 0 1 0 0 0 0 1 0 0 0 1 0"/>
<feBlend mode="normal" in2="BackgroundImageFix" result="effect1_dropShadow_3925_425"/>
<feBlend mode="normal" in="SourceGraphic" in2="effect1_dropShadow_3925_425" result="shape"/>
</filter>
<linearGradient id="paint0_linear_3925_425" x1="12.2408" y1="24.2969" x2="12.2408" y2="0.444706" gradientUnits="userSpaceOnUse">
<stop stop-color="#FFDEC9"/>
<stop offset="1" stop-color="#BD7B4F"/>
</linearGradient>
</defs>
</svg>

<svg width="24" height="25" fill="none" xmlns="http://www.w3.org/2000/svg"><g filter="url(#filter0_i_3925_425)"><path d="M23.763 23.04L16.139 1.082a.948.948 0 0 0-.899-.638H9.235a.954.954 0 0 0-.9.638L.719 23.039a.946.946 0 0 0 .898 1.258h21.247a.953.953 0 0 0 .941-.813.946.946 0 0 0-.042-.445z" fill="url(#paint0_linear_3925_425)"/><path fill-rule="evenodd" clip-rule="evenodd" d="M14.248 4.074h-4.015v.002a.952.952 0 0 0-.909.636L3.941 20.234a.948.948 0 0 0 .898 1.26h14.793a.952.952 0 0 0 .942-.815.945.945 0 0 0-.043-.445L15.147 4.712a.948.948 0 0 0-.899-.638zm-.875.81h-2.266a.943.943 0 0 0-.52.156.828.828 0 0 0-.322.406L5.283 19.268a.76.76 0 0 0 .123.738c.083.105.191.191.316.25.126.06.265.09.406.09h12.226c.141 0 .28-.03.405-.09a.875.875 0 0 0 .316-.25.76.76 0 0 0 .122-.738l-4.98-13.822a.83.83 0 0 0-.324-.406.946.946 0 0 0-.52-.156z" fill="#361D0C"/><path fill-rule="evenodd" clip-rule="evenodd" d="M12.147 16.502a1.895 1.895 0 1 1 0-3.79 1.895 1.895 0 0 1 0 3.79zm-3.391-1.895a3.391 3.391 0 1 0 6.782 0 3.391 3.391 0 0 0-6.782 0z" fill="#382315"/><g filter="url(#filter1_d_3925_425)"><path d="M14.128 14.605a1.98 1.98 0 1 0-3.962 0 1.98 1.98 0 0 0 3.962 0z" fill="#FFDEC9"/></g></g><defs><filter id="filter0_i_3925_425" x=".667" y=".445" width="23.148" height="23.852" filterUnits="userSpaceOnUse" color-interpolation-filters="sRGB"><feFlood flood-opacity="0" result="BackgroundImageFix"/><feBlend in="SourceGraphic" in2="BackgroundImageFix" result="shape"/><feColorMatrix in="SourceAlpha" values="0 0 0 0 0 0 0 0 0 0 0 0 0 0 0 0 0 0 127 0" result="hardAlpha"/><feOffset/><feGaussianBlur stdDeviation="7.484"/><feComposite in2="hardAlpha" operator="arithmetic" k2="-1" k3="1"/><feColorMatrix values="0 0 0 0 0 0 0 0 0 0 0 0 0 0 0 0 0 0 0.25 0"/><feBlend in2="shape" result="effect1_innerShadow_3925_425"/></filter><filter id="filter1_d_3925_425" x="4.18" y="6.638" width="15.935" height="15.935" filterUnits="userSpaceOnUse" color-interpolation-filters="sRGB"><feFlood flood-opacity="0" result="BackgroundImageFix"/><feColorMatrix in="SourceAlpha" values="0 0 0 0 0 0 0 0 0 0 0 0 0 0 0 0 0 0 127 0" result="hardAlpha"/><feOffset/><feGaussianBlur stdDeviation="2.993"/><feComposite in2="hardAlpha" operator="out"/><feColorMatrix values="0 0 0 0 1 0 0 0 0 1 0 0 0 0 1 0 0 0 1 0"/><feBlend in2="BackgroundImageFix" result="effect1_dropShadow_3925_425"/><feBlend in="SourceGraphic" in2="effect1_dropShadow_3925_425" result="shape"/></filter><linearGradient id="paint0_linear_3925_425" x1="12.241" y1="24.297" x2="12.241" y2=".445" gradientUnits="userSpaceOnUse"><stop stop-color="#FFDEC9"/><stop offset="1" stop-color="#BD7B4F"/></linearGradient></defs></svg>
